Obsidian/actions/24s/stock_xfburn-blank-cdrw.svg

<svg height="24" viewBox="0 0 24 24" width="24" xmlns="http://www.w3.org/2000/svg"><path d="m12 4a8 8 0 0 0 -8 8 8 8 0 0 0 8 8 8 8 0 0 0 8-8 8 8 0 0 0 -8-8zm-2.828125 3.7578125 2.828125 2.8281255 2.828125-2.8281255 1.414063 1.4140625-2.828125 2.828125 2.828125 2.828125-1.414063 1.414063-2.828125-2.828125-2.828125 2.828125-1.4140625-1.414063 2.8281255-2.828125-2.8281255-2.828125z" fill="#bebebe"/></svg>

<svg xmlns="http://www.w3.org/2000/svg" width="24" height="24" version="1.1" viewBox="0 0 24 24">
 <defs>
  <style id="current-color-scheme" type="text/css">
   .ColorScheme-Text { color:#bebebe; } .ColorScheme-Highlight { color:#4285f4; }
  </style>
 </defs>
 <path style="fill:currentColor" class="ColorScheme-Text" d="m 12,4 a 8,8 0 0 0 -8,8 8,8 0 0 0 8,8 8,8 0 0 0 8,-8 8,8 0 0 0 -8,-8 z M 9.171875,7.7578125 12,10.585938 14.828125,7.7578125 16.242188,9.171875 13.414063,12 16.242188,14.828125 14.828125,16.242188 12,13.414063 9.171875,16.242188 7.7578125,14.828125 10.585938,12 7.7578125,9.171875 Z"/>
</svg>
